picto/reservation-framed.svg

<svg class="color-immutable" width="30" height="30" viewBox="0 0 30 30" fill="none" xmlns="http://www.w3.org/2000/svg"><path d="M30 30H0V0H30V30Z" fill="#2D327D"/><path d="M25.5 3C26.325 3 27 3.675 27 4.5V25.5C27 26.325 26.325 27 25.5 27H4.5C3.675 27 3 26.325 3 25.5V4.5C3 3.675 3.675 3 4.5 3H25.5ZM25.5 2.625H4.5C3.46613 2.625 2.625 3.46613 2.625 4.5V25.5C2.625 26.5339 3.46613 27.375 4.5 27.375H25.5C26.5339 27.375 27.375 26.5339 27.375 25.5V4.5C27.375 3.46613 26.5339 2.625 25.5 2.625Z" fill="white"/><path d="M14.9998 5.99988C10.0293 5.99988 5.99976 10.0294 5.99976 15C5.99976 19.9704 10.0293 24.0001 14.9998 24.0001C19.9705 24.0001 24.0002 19.9704 24.0002 15C24.0002 10.0294 19.9705 5.99988 14.9998 5.99988ZM18.7495 14.1334C17.7204 14.1334 16.8855 13.2989 16.8855 12.2697C16.8855 12.1777 16.8922 12.0873 16.9051 11.9991C16.0875 12.4881 15.5204 13.6628 15.5201 14.8979L15.5198 19.4428H16.6757C16.8827 19.4428 17.0506 19.6107 17.0506 19.8177C17.0506 20.0247 16.8827 20.1933 16.6757 20.1933H15.5198L12.1142 20.1948L10.927 20.1933C10.7198 20.1933 10.5523 20.0246 10.5523 19.8177C10.5523 19.6107 10.7198 19.4428 10.927 19.4428H12.1142V11.2834H10.927C10.7198 11.2834 10.5523 11.1156 10.5523 10.9088C10.5523 10.7011 10.7198 10.5336 10.927 10.5336H15.5201L15.5204 12.4219C16.052 11.6494 17.1003 10.4053 18.7495 10.4053C19.7791 10.4053 20.6137 11.24 20.6137 12.2696C20.6137 13.2989 19.7791 14.1334 18.7495 14.1334Z" fill="white"/></svg>

<svg class="color-immutable" width="30" height="30" viewBox="0 0 30 30" fill="none" xmlns="http://www.w3.org/2000/svg"><g clip-path="url(#a)"><path d="M30 30H0V0h30v30Z" fill="#2D327D"/><path d="M25.5 3c.825 0 1.5.675 1.5 1.5v21c0 .825-.675 1.5-1.5 1.5h-21c-.825 0-1.5-.675-1.5-1.5v-21C3 3.675 3.675 3 4.5 3h21Zm0-.375h-21A1.877 1.877 0 0 0 2.625 4.5v21c0 1.034.841 1.875 1.875 1.875h21a1.877 1.877 0 0 0 1.875-1.875v-21A1.877 1.877 0 0 0 25.5 2.625Z" fill="#fff"/><path d="M15 6a9 9 0 1 0 0 18 9 9 0 0 0 0-18Zm3.75 8.133A1.864 1.864 0 0 1 16.905 12c-.818.49-1.385 1.664-1.385 2.899v4.545h1.156a.375.375 0 0 1 0 .75H15.52l-3.406.002-1.187-.002a.375.375 0 0 1 0-.75h1.187v-8.16h-1.187a.375.375 0 1 1 0-.75h4.593v1.889c.532-.773 1.58-2.017 3.23-2.017a1.864 1.864 0 0 1 0 3.728Z" fill="#fff"/></g><defs><clipPath id="a"><path fill="#fff" d="M0 0h30v30H0z"/></clipPath></defs></svg>
